polaris-icons/icons/newicons/WandMajor.svg

<svg width="20" height="20" viewBox="0 0 20 20" fill="none" xmlns="http://www.w3.org/2000/svg">
<path fill-rule="evenodd" clip-rule="evenodd" d="M15.2374 3.17663C14.554 2.49321 13.446 2.49321 12.7626 3.17663L3.17678 12.7624C2.49336 13.4458 2.49336 14.5539 3.17678 15.2373L4.76256 16.8231C5.44598 17.5065 6.55402 17.5065 7.23744 16.8231L14.5212 9.53929L14.5303 9.53033L14.5393 9.52122L16.8232 7.23729C17.5066 6.55387 17.5066 5.44583 16.8232 4.76241L15.2374 3.17663ZM13.9999 7.93926L15.7626 6.17663C15.8602 6.07899 15.8602 5.9207 15.7626 5.82307L14.1768 4.23729C14.0791 4.13965 13.9209 4.13965 13.8232 4.23729L12.0606 5.99992L13.9999 7.93926ZM10.9999 7.06059L4.23744 13.8231C4.13981 13.9207 4.13981 14.079 4.23744 14.1766L5.82322 15.7624C5.92086 15.86 6.07915 15.86 6.17678 15.7624L12.9393 8.99993L10.9999 7.06059Z" fill="black"/>
<path d="M14.75 12.5C15.1642 12.5 15.5 12.8358 15.5 13.25V14H16.25C16.6642 14 17 14.3358 17 14.75C17 15.1642 16.6642 15.5 16.25 15.5H15.5V16.25C15.5 16.6642 15.1642 17 14.75 17C14.3358 17 14 16.6642 14 16.25V15.5H13.25C12.8358 15.5 12.5 15.1642 12.5 14.75C12.5 14.3358 12.8358 14 13.25 14H14V13.25C14 12.8358 14.3358 12.5 14.75 12.5Z" fill="black"/>
<path d="M6 3.75C6 3.33579 5.66421 3 5.25 3C4.83579 3 4.5 3.33579 4.5 3.75V4.5H3.75C3.33579 4.5 3 4.83579 3 5.25C3 5.66421 3.33579 6 3.75 6H4.5V6.75C4.5 7.16421 4.83579 7.5 5.25 7.5C5.66421 7.5 6 7.16421 6 6.75V6H6.75C7.16421 6 7.5 5.66421 7.5 5.25C7.5 4.83579 7.16421 4.5 6.75 4.5H6V3.75Z" fill="black"/>
</svg>

<svg viewBox="0 0 20 20" fill="none" xmlns="http://www.w3.org/2000/svg"><path fill-rule="evenodd" clip-rule="evenodd" d="M15.237 3.177a1.75 1.75 0 0 0-2.474 0l-9.586 9.585a1.75 1.75 0 0 0 0 2.475l1.586 1.586a1.75 1.75 0 0 0 2.474 0l7.284-7.284.01-.009.008-.009 2.284-2.284a1.75 1.75 0 0 0 0-2.475l-1.586-1.585Zm-1.237 4.762 1.763-1.762a.25.25 0 0 0 0-.354l-1.586-1.586a.25.25 0 0 0-.354 0l-1.762 1.763 1.939 1.94Zm-3-.878-6.763 6.762a.25.25 0 0 0 0 .354l1.586 1.585a.25.25 0 0 0 .354 0l6.762-6.762-1.94-1.94Z" fill="#5C5F62"/><path d="M14.75 12.5a.75.75 0 0 1 .75.75v.75h.75a.75.75 0 0 1 0 1.5h-.75v.75a.75.75 0 0 1-1.5 0v-.75h-.75a.75.75 0 0 1 0-1.5h.75v-.75a.75.75 0 0 1 .75-.75Z" fill="#5C5F62"/><path d="M6 3.75a.75.75 0 0 0-1.5 0v.75h-.75a.75.75 0 0 0 0 1.5h.75v.75a.75.75 0 0 0 1.5 0v-.75h.75a.75.75 0 0 0 0-1.5h-.75v-.75Z" fill="#5C5F62"/></svg>
